assets/symbols/mulberry/flag_central_african_republic.svg

<svg height="850.394" viewBox="0 0 850.394 850.394" width="850.394" xmlns="http://www.w3.org/2000/svg"><path d="m748.18 428v92.17h-240.18v-92.17h240z" fill="#fbed24"/><path d="m162.61 332v453.38h-39.49l-1.12-670.61c5.8 2.59 12.62 4.08 19.92 4.08 7.62 0 14.73-1.63 20.69-4.43z" fill="#c8c8c8"/><path d="m748.18 332v96h-240.18v-96h240z" fill="#34a047"/><path d="m748.18 236v96h-240.18v-96h240z" fill="#fff"/><path d="m748.18 177.46v58.54h-240.18v-95.66h240.18z" fill="#394ea1"/><path d="m508 428v92.17h-98v-379.83h98v191.66z" fill="#ed1e29"/><path d="m410 428v92.17h-241.44l-.85-92.17z" fill="#fbed24"/><path d="m410 332v96h-242.29l-.88-96z" fill="#34a047"/><path d="m410 236v96h-243.17l-.88-96z" fill="#fff"/><path d="m410 140.34v95.66h-244.05l-.88-95.66zm-145.51 52.34 12.45-13.3-17.89-3.43-8.79-15.95-8.8 15.95-17.88 3.43 12.45 13.3-2.26 18.07 16.49-7.74 16.49 7.74z" fill="#394ea1"/><path d="m276.94 179.38-12.45 13.3 2.26 18.07-16.49-7.74-16.49 7.74 2.26-18.07-12.45-13.3 17.88-3.43 8.8-15.95 8.79 15.95z" fill="#fbed24"/><path d="m162.61 114.42c-5.96 2.8-13.07 4.43-20.69 4.43-7.3 0-14.12-1.49-19.92-4.08-10.99-4.89-18.33-13.72-18.33-23.8 0-15.4 17.13-27.88 38.25-27.88 21.13 0 38.26 12.48 38.26 27.88 0 9.84-7 18.49-17.57 23.45z" fill="#c8c8c8"/><g fill="none"><g stroke="#231f20"><path d="m165.07 140.34h583.11v379.83h-579.62m-46.56-405.4c-10.99-4.89-18.33-13.72-18.33-23.8 0-15.4 17.13-27.88 38.25-27.88 21.13 0 38.26 12.48 38.26 27.88 0 9.84-7 18.49-17.57 23.45-5.96 2.8-13.07 4.43-20.69 4.43-7.3 0-14.12-1.49-19.92-4.08z" stroke-width="21"/><path d="m122 114v.77l1.12 670.61m39.49-672.78v672.78" stroke-width="21"/><path d="m744.76 179.39 3.42-1.93 2.01-1.14m-242.19 155.68h240m-586 0h248m98-96h240m-584 0h246m96 192h242m-584 0h246m0-288v382m98-386v386" stroke-width="14"/><path d="m250.26 203.01-16.49 7.74 2.26-18.07-12.45-13.3 17.88-3.43 8.8-15.95 8.79 15.95 17.89 3.43-12.45 13.3 2.26 18.07z" stroke-width="4.618"/></g><path d="m0 0h850.394v850.394h-850.394z"/></g></svg>

<svg xmlns="http://www.w3.org/2000/svg" width="850.394" height="850.394" viewBox="0 0 850.394 850.394" overflow="visible"><path fill="#fbed24" d="M748.18 428v92.17H508V428h240z"/><path d="M162.61 332v453.38h-39.49L122 114.77c5.8 2.59 12.62 4.08 19.92 4.08 7.62 0 14.73-1.63 20.69-4.43V332z" fill="#c8c8c8"/><path fill="#34a047" d="M748.18 332v96H508v-96h240z"/><path fill="#fff" d="M748.18 236v96H508v-96h240z"/><path fill="#394ea1" d="M748.18 177.46V236H508v-95.66h240.18z"/><path fill="#ed1e29" d="M508 428v92.17h-98V140.34h98V332z"/><path fill="#fbed24" d="M410 428v92.17H168.56l-.85-92.17z"/><path fill="#34a047" d="M410 332v96H167.71l-.88-96z"/><path fill="#fff" d="M410 236v96H166.83l-.88-96z"/><path d="M410 140.34V236H165.95l-.88-95.66H410zm-145.51 52.34l12.45-13.3-17.89-3.43-8.79-15.95-8.8 15.95-17.88 3.43 12.45 13.3-2.26 18.07 16.49-7.74 16.49 7.74-2.26-18.07z" fill="#394ea1"/><path fill="#fbed24" d="M276.94 179.38l-12.45 13.3 2.26 18.07-16.49-7.74-16.49 7.74 2.26-18.07-12.45-13.3 17.88-3.43 8.8-15.95 8.79 15.95z"/><path d="M162.61 114.42c-5.96 2.8-13.07 4.43-20.69 4.43-7.3 0-14.12-1.49-19.92-4.08-10.99-4.89-18.33-13.72-18.33-23.8 0-15.4 17.13-27.88 38.25-27.88 21.13 0 38.26 12.48 38.26 27.88 0 9.84-7 18.49-17.57 23.45z" fill="#c8c8c8"/><g fill="none" stroke="#231f20"><path stroke-width="21" d="M165.07 140.34h583.11v379.83H168.56M122 114.77c-10.99-4.89-18.33-13.72-18.33-23.8 0-15.4 17.13-27.88 38.25-27.88 21.13 0 38.26 12.48 38.26 27.88 0 9.84-7 18.49-17.57 23.45-5.96 2.8-13.07 4.43-20.69 4.43-7.3 0-14.12-1.49-19.92-4.08z"/><path stroke-width="21" d="M122 114v.77l1.12 670.61M162.61 112.6v672.78"/><path stroke-width="14" d="M744.76 179.39l3.42-1.93 2.01-1.14M508 332h240M162 332h248M508 236h240M164 236h246M506 428h242M164 428h246M410 140v382M508 136v386"/><path stroke-width="4.618" d="M250.26 203.01l-16.49 7.74 2.26-18.07-12.45-13.3 17.88-3.43 8.8-15.95 8.79 15.95 17.89 3.43-12.45 13.3 2.26 18.07z"/></g><path fill="none" d="M0 0h850.394v850.394H0z"/></svg>
